X: 29
T: Bergmanpolskan
O: Orsa, Dalarna
Z:Transcribed to abcby Jon Magnusson 080429
R: Polska
M: 3/4
L: 1/8
K: Gm
D|:(3:2:4 G2Bd=e2 d>c|(3:2:5 c2BcBA B>d|(3:2:4 f2f2=ef g>=e|(3 f2d2c2 B>A|
(3:2:4 G2Bd=e2 d>c|(3:2:5 c2BcBA B>d|(3:2:4 f2f2=ef g>e| f2 d4-|[1 d4-dD:|][2 d6|]
(3g2f2d2- d2|(3 cAc B2 A2|(3g2f2d2- d2|(3 cAc B2 A>^F|(3:2:4 G2ABd2 (3 BGB|(3 A^FA GB d>g|
(3g2f2d2- d2|(3 cAc B2 A2|(3g2f2d2- d2|(3 cAc B2 A>^F|(3:2:4 G2ABd2 (3 BGB|(3 A^FA G4:|
